X:1
T:Des Moines, 66.77.77
T:Deutsche Lieder (Nuremberg, Germany, 1574)
T:Des Moines, 66.77.77
T:Public Domain
C:Deutsche Lieder (Nuremberg, Germany, 1574)
Z:Public Domain
%%score ( 1 2 ) ( 3 4 )
L:1/8
M:4/4
K:F
V:1 treble 
V:2 treble 
V:3 bass 
V:4 bass 
V:1
 [A,D]2 | [A,D]2 [A,E]2 [A,F]2 [DG]2 | [^CA]6 [=CA]2 | [FA]2 [EG]2 [DF]2 [DF]2 | [CE]6 [^CE]2 | %5
 [DF]2 [EG]2 [FA]2 [FA]2 | (F2 E2) [FA]2 [^CE]2 | [DF]2 [EG]2 [FA]2 [FA]2 | (F2 E2) F4 | z4 [FA]4 | %10
 [Ec]2 [FA]2 [FA]2 F2 | [FG]4 [EG]2 [EG]2 | [FA]3 [EG] [DF]2 [DG]2 | (D2 ^C2) D2 |] %14
V:2
 x2 | x8 | x8 | x8 | x8 | x8 | G4 x4 | x8 | G4 F4 | x8 | x6 F2 | x8 | x8 | E4 D2 |] %14
V:3
 [D,F,]2 | [D,F,]2 [^C,E,]2 D,2 [B,,D,]2 | [A,,E,]6 F,2 | [F,C]2 [C,C]2 [D,A,]2 [D,A,]2 | %4
 [A,,A,]6 [A,,A,]2 | [D,A,]2 [C,C]2 [F,C]2 [A,,C]2 | [C,C]4 [F,,C]2 [A,,A,]2 | %7
 [D,A,]2 [C,C]2 [F,C]2 [A,,C]2 | [C,C]4 [F,,A,]4 | z4 [F,C]4 | A,2 [F,C]2 [F,,C]2 [A,,C]2 | %11
 [C,C]4 [C,C]2 [C,C]2 | [F,C]3 [C,C] [D,A,]2 [G,,B,]2 | [A,,A,]4 [D,^F,]2 |] %14
V:4
 x2 | x4 D,2 x2 | x6 F,2 | x8 | x8 | x8 | x8 | x8 | x8 | x8 | A,2 x6 | x8 | x8 | x6 |] %14

